(Generated by PartKam Version 0.05)

G21 G90 G40

(follow path 1)
G0 Z15
T0 M6
G17
M3
G0 X5.589086 Y25.5040609
G1 Z-0.4 F800
G1 X5.58883248 Y15.46446 F1500
G0 Z15
G0 X5.5890862 Y19.906345
G1 Z-0.4 F800
G1 X8.786802 Y19.4619 F1500
G0 Z15
G0 X8.9654822 Y25.1484
G1 Z-0.4 F800
G1 X8.609137 Y15.375634 F1500
G0 Z15
G0 X10.92030 Y17.862690
G1 Z-0.4 F800
G1 X15.0076142 Y20.616751 F1500
G1 X15.0076142 Y21.41624
G3 X13.972081 Y21.5609137 I-1.17258883 J-4.6522842
G3 X13.187817 Y21.4695431 I-0.07868020 J-2.7461928
G3 X12.479695 Y21.1472081 I0.604060913 J-2.2741116
G3 X11.870558 Y20.5837563 I1.487309644 J-2.2131979
G3 X11.149746 Y19.1065989 I3.060913705 J-2.4086294
G3 X10.743654 Y15.9974619 I13.74873096 J-3.3832487
G1 X12.796954 Y15.4619289
G1 X13.220812 Y16
G1 X12.609137 Y16
G0 Z15
G0 X16.784517 Y24.7931472
G1 Z-0.4 F800
G1 X15.629441 Y15.6421319 F1500
G1 X16.251269 Y14.931472
G0 Z15
G0 X19.183502 Y25.2373096
G1 Z-0.4 F800
G1 X18.116751 Y15.6421319 F1500
G1 X18.383248 Y15.1091370
G1 X19.093908 Y14.9314720
G0 Z15
G0 X3.0124365 Y9.68807106
G1 Z-0.4 F800
G1 X5.4111675 Y4.09137055 F1500
G1 X6.1218274 Y6.48984771
G2 X6.5888324 Y5.21827411 I-28.87817 J-11.2994923
G2 X6.7512690 Y4.65228426 I-5.573604 J-1.90609137
G2 X6.7994923 Y4.36548223 I-2.380710 J-0.55583756
G2 X6.7944162 Y4.24873096 I-0.383248 J-0.04314720
G2 X6.7461928 Y4.18527918 I-0.086294 J0.017766497
G2 X6.6598984 Y4.18781725 I-0.040609 J0.091370558
G1 X8.4340101 Y10.1725888
G0 Z15
G0 X11.98654 Y6.84492385
G1 Z-0.4 F800
G1 X11.98730 Y3.6472081 F1500
G0 Z15
G0 X12.07538 Y6.0451776
G1 Z-0.4 F800
G1 X14.82994 Y6.6675126 F1500
G0 Z15
G0 X16.07385 Y8.7997461
G1 Z-0.4 F800
G1 X16.0736 Y3.1142131 F1500
G0 Z15
G0 X20.0720 Y9.155076
G1 Z-0.4 F800
G1 X20.07106 Y4.8908 F1500
G1 X20.33756 Y4.3578
G1 X20.95939 Y3.7360
G0 Z15
G0 X24.42588 Y9.5104
G1 Z-0.4 F800
G1 X24.3375 Y4.89086 F1500
G0 Z15
G0 X24.070 Y3.55736
G1 Z-0.4 F800
G1 X24.248730 Y2.9365 F1500
G0 Z15
G0 X19.7934 Y17.81827
G1 Z-0.4 F800
G2 X19.98477 Y18.7741 I2.5 J0 F1500
G2 X20.52538 Y19.586294 I2.30964 J-0.95685
G2 X21.33756 Y20.126903 I1.76903 J-1.76903
G2 X22.29441 Y20.317258 I0.95685 J-2.30964
G2 X23.25126 Y20.126903 I0 J-2.5
G2 X24.06091 Y19.586294 I-0.9568 J-2.30964
G2 X24.60406 Y18.774111 I-1.7690 J-1.76903
G2 X24.79441 Y17.817258 I-2.3096 J-0.95685
G2 X24.60406 Y16.860406 I-2.5 J0
G2 X24.06090 Y16.050761 I-2.3096 J0.956852
G2 X23.25126 Y15.507614 I-1.7690 J1.769035
G2 X22.29441 Y15.317258 I-0.9568 J2.309644
G2 X21.33756 Y15.507614 I0 J2.5
G2 X20.52530 Y16.050761 I0.95685 J2.309644
G2 X19.98477 Y16.860406 I1.76903 J1.769035
G2 X19.79441 Y17.817258 I2.30964 J0.956852
G0 Z15
G0 X16.63401 Y5.1121827
G1 Z-0.4 F800
G2 X16.76649 Y5.781725 I1.74873 J0 F1500
G2 X17.14720 Y6.350253 I1.61675 J-0.67005
G2 X17.71319 Y6.728426 I1.23857 J-1.23857
G2 X18.38324 Y6.862944 I0.67005 J-1.61675
G2 X19.05329 Y6.728426 I0 J-1.74873
G2 X19.62182 Y6.350253 I-0.67005 J-1.61675
G2 X20 Y5.78172 I-1.23857 J-1.23857
G2 X20.13451 Y5.111675 I-1.61675 J-0.67005
G2 X20 Y4.44162 I-1.7512 J0
G2 X19.62182 Y3.875634 I-1.61675 J0.670050
G2 X19.05329 Y3.494923 I-1.23857 J1.238578
G2 X18.38324 Y3.362944 I-0.67005 J1.616751
G2 X17.71319 Y3.494923 I0 J1.751
G2 X17.14720 Y3.875634 I0.670050 J1.616751
G2 X16.76649 Y4.441624 I1.238578 J1.238578
G2 X16.63451 Y5.111675 I1.616751 J0.670050
G0 Z15
G0 X8.365228 Y5.201015
G1 Z-0.4 F800
G2 X8.472081 Y5.736040 I1.401015 J0 F1500
G2 X8.774111 Y6.190355 I1.294416 J-0.535532
G2 X9.228426 Y6.494923 I0.989847 J-0.989847
G2 X9.763959 Y6.601522 I0.535532 J-1.294416
G2 X10.30203 Y6.494923 I0 J-1.40101
G2 X10.75634 Y6.190355 I-0.53553 J-1.294416
G2 X11.05837 Y5.736040 I-0.98984 J-0.989847
G2 X11.16497 Y5.200507 I-1.29441 J-0.535532
G2 X11.05837 Y4.664974 I-1.40101 J0
G2 X10.75634 Y4.210659 I-1.29441 J0.5355329
G2 X10.30203 Y3.908629 I-0.98984 J0.9898477
G2 X9.763959 Y3.802030 I-0.53553 J1.2944162
G2 X9.228420 Y3.908629 I0 J1.401
G2 X8.774111 Y4.210659 I0.535532 J1.2944162
G2 X8.472081 Y4.664974 I0.989847 J0.9898470
G2 X8.365482 Y5.200507 I1.294416 J0.5355329
G0 Z15
M5
M30
G0X0Y0Z0
